(Project coutout_with_holes)
(Created by Estlcam version 10 build 10,044)
(Machining time about 00:05:21 hours)

(Required tools:)
(Fraeser 3mm)
G21
G90
G94
M03 S24000
G00 Z5.0000


(No. 1: Led Coutout)
G00 X11.8000 Y11.9000
G00 Z0.5000
G01 Z-7.5000 F600 S24000
G01 X28.2000 F1200
G01 Y14.6000
G01 X11.8000
G01 Y17.3000
G01 X28.2000
G01 Y20.0000
G01 X11.8000
G01 Y22.7000
G01 X28.2000
G01 Y25.4000
G01 X11.8000
G01 Y28.1000
G01 X28.2000
G00 Z5.0000
G00 Z0.5000
G01 Z-7.5000 F600
G01 X28.5000 F1200
G01 Y11.5000
G01 X11.5000
G01 Y28.5000
G01 X28.5000
G01 Y28.1000
G01 X28.2000
G00 Z5.0000
G00 Y11.9000
G00 Z-7.0000
G01 Z-15.0000 F600
G01 X11.8000 F1200
G01 Y14.6000
G01 X28.2000
G01 Y17.3000
G01 X11.8000
G01 Y20.0000
G01 X28.2000
G01 Y22.7000
G01 X11.8000
G01 Y25.4000
G01 X28.2000
G01 Y28.1000
G01 X11.8000
G00 Z5.0000
G00 Z-7.0000
G01 Z-15.0000 F600
G01 X11.5000 F1200
G01 Y28.5000
G01 X28.5000
G01 Y11.5000
G01 X11.5000
G01 Y28.1000
G01 X11.8000
G00 Z5.0000


(No. 2: Led Coutout)
G00 X36.8000 Y11.9000 Z5.0000
G00 Z0.5000
G01 Z-7.5000 F600
G01 X53.2000 F1200
G01 Y14.6000
G01 X36.8000
G01 Y17.3000
G01 X53.2000
G01 Y20.0000
G01 X36.8000
G01 Y22.7000
G01 X53.2000
G01 Y25.4000
G01 X36.8000
G01 Y28.1000
G01 X53.2000
G00 Z5.0000
G00 Z0.5000
G01 Z-7.5000 F600
G01 X53.5000 F1200
G01 Y11.5000
G01 X36.5000
G01 Y28.5000
G01 X53.5000
G01 Y28.1000
G01 X53.2000
G00 Z5.0000
G00 Y11.9000
G00 Z-7.0000
G01 Z-15.0000 F600
G01 X36.8000 F1200
G01 Y14.6000
G01 X53.2000
G01 Y17.3000
G01 X36.8000
G01 Y20.0000
G01 X53.2000
G01 Y22.7000
G01 X36.8000
G01 Y25.4000
G01 X53.2000
G01 Y28.1000
G01 X36.8000
G00 Z5.0000
G00 Z-7.0000
G01 Z-15.0000 F600
G01 X36.5000 F1200
G01 Y28.5000
G01 X53.5000
G01 Y11.5000
G01 X36.5000
G01 Y28.1000
G01 X36.8000
G00 Z5.0000


(No. 3: Led Coutout)
G00 X61.8000 Y11.9000 Z5.0000
G00 Z0.5000
G01 Z-7.5000 F600
G01 X78.2000 F1200
G01 Y14.6000
G01 X61.8000
G01 Y17.3000
G01 X78.2000
G01 Y20.0000
G01 X61.8000
G01 Y22.7000
G01 X78.2000
G01 Y25.4000
G01 X61.8000
G01 Y28.1000
G01 X78.2000
G00 Z5.0000
G00 Z0.5000
G01 Z-7.5000 F600
G01 X78.5000 F1200
G01 Y11.5000
G01 X61.5000
G01 Y28.5000
G01 X78.5000
G01 Y28.1000
G01 X78.2000
G00 Z5.0000
G00 Y11.9000
G00 Z-7.0000
G01 Z-15.0000 F600
G01 X61.8000 F1200
G01 Y14.6000
G01 X78.2000
G01 Y17.3000
G01 X61.8000
G01 Y20.0000
G01 X78.2000
G01 Y22.7000
G01 X61.8000
G01 Y25.4000
G01 X78.2000
G01 Y28.1000
G01 X61.8000
G00 Z5.0000
G00 Z-7.0000
G01 Z-15.0000 F600
G01 X61.5000 F1200
G01 Y28.5000
G01 X78.5000
G01 Y11.5000
G01 X61.5000
G01 Y28.1000
G01 X61.8000
G00 Z5.0000


(No. 4: Led Coutout)
G00 X61.8000 Y36.9000 Z5.0000
G00 Z0.5000
G01 Z-7.5000 F600
G01 X78.2000 F1200
G01 Y39.6000
G01 X61.8000
G01 Y42.3000
G01 X78.2000
G01 Y45.0000
G01 X61.8000
G01 Y47.7000
G01 X78.2000
G01 Y50.4000
G01 X61.8000
G01 Y53.1000
G01 X78.2000
G00 Z5.0000
G00 Z0.5000
G01 Z-7.5000 F600
G01 X78.5000 F1200
G01 Y36.5000
G01 X61.5000
G01 Y53.5000
G01 X78.5000
G01 Y53.1000
G01 X78.2000
G00 Z5.0000
G00 Y36.9000
G00 Z-7.0000
G01 Z-15.0000 F600
G01 X61.8000 F1200
G01 Y39.6000
G01 X78.2000
G01 Y42.3000
G01 X61.8000
G01 Y45.0000
G01 X78.2000
G01 Y47.7000
G01 X61.8000
G01 Y50.4000
G01 X78.2000
G01 Y53.1000
G01 X61.8000
G00 Z5.0000
G00 Z-7.0000
G01 Z-15.0000 F600
G01 X61.5000 F1200
G01 Y53.5000
G01 X78.5000
G01 Y36.5000
G01 X61.5000
G01 Y53.1000
G01 X61.8000
G00 Z5.0000


(No. 5: Led Coutout)
G00 X53.2000 Y36.9000 Z5.0000
G00 Z0.5000
G01 Z-7.5000 F600
G01 X36.8000 F1200
G01 Y39.6000
G01 X53.2000
G01 Y42.3000
G01 X36.8000
G01 Y45.0000
G01 X53.2000
G01 Y47.7000
G01 X36.8000
G01 Y50.4000
G01 X53.2000
G01 Y53.1000
G01 X36.8000
G00 Z5.0000
G00 Z0.5000
G01 Z-7.5000 F600
G01 X36.5000 F1200
G01 Y53.5000
G01 X53.5000
G01 Y36.5000
G01 X36.5000
G01 Y53.1000
G01 X36.8000
G00 Z5.0000
G00 Y36.9000
G00 Z-7.0000
G01 Z-15.0000 F600
G01 X53.2000 F1200
G01 Y39.6000
G01 X36.8000
G01 Y42.3000
G01 X53.2000
G01 Y45.0000
G01 X36.8000
G01 Y47.7000
G01 X53.2000
G01 Y50.4000
G01 X36.8000
G01 Y53.1000
G01 X53.2000
G00 Z5.0000
G00 Z-7.0000
G01 Z-15.0000 F600
G01 X53.5000 F1200
G01 Y36.5000
G01 X36.5000
G01 Y53.5000
G01 X53.5000
G01 Y53.1000
G01 X53.2000
G00 Z5.0000


(No. 6: Led Coutout)
G00 X28.2000 Y36.9000 Z5.0000
G00 Z0.5000
G01 Z-7.5000 F600
G01 X11.8000 F1200
G01 Y39.6000
G01 X28.2000
G01 Y42.3000
G01 X11.8000
G01 Y45.0000
G01 X28.2000
G01 Y47.7000
G01 X11.8000
G01 Y50.4000
G01 X28.2000
G01 Y53.1000
G01 X11.8000
G00 Z5.0000
G00 Z0.5000
G01 Z-7.5000 F600
G01 X11.5000 F1200
G01 Y53.5000
G01 X28.5000
G01 Y36.5000
G01 X11.5000
G01 Y53.1000
G01 X11.8000
G00 Z5.0000
G00 Y36.9000
G00 Z-7.0000
G01 Z-15.0000 F600
G01 X28.2000 F1200
G01 Y39.6000
G01 X11.8000
G01 Y42.3000
G01 X28.2000
G01 Y45.0000
G01 X11.8000
G01 Y47.7000
G01 X28.2000
G01 Y50.4000
G01 X11.8000
G01 Y53.1000
G01 X28.2000
G00 Z5.0000
G00 Z-7.0000
G01 Z-15.0000 F600
G01 X28.5000 F1200
G01 Y36.5000
G01 X11.5000
G01 Y53.5000
G01 X28.5000
G01 Y53.1000
G01 X28.2000
G00 Z5.0000


(No. 7: Led Holes)
G00 X11.5000 Y42.2500 Z5.0000
G00 Z-14.5000
G01 Z-20.0000 F600
G00 Z5.0000


(No. 8: Led Holes)
G00 X11.5000 Y45.0000 Z5.0000
G00 Z-14.5000
G01 Z-20.0000 F600
G00 Z5.0000


(No. 9: Led Holes)
G00 X11.5000 Y47.7500 Z5.0000
G00 Z-14.5000
G01 Z-20.0000 F600
G00 Z5.0000


(No. 10: Led Holes)
G00 X28.5000 Y45.0000 Z5.0000
G00 Z-14.5000
G01 Z-20.0000 F600
G00 Z5.0000


(No. 11: Led Holes)
G00 X36.5000 Y45.0000 Z5.0000
G00 Z-14.5000
G01 Z-20.0000 F600
G00 Z5.0000


(No. 12: Led Holes)
G00 X36.5000 Y47.7500 Z5.0000
G00 Z-14.5000
G01 Z-20.0000 F600
G00 Z5.0000


(No. 13: Led Holes)
G00 X36.5000 Y42.2500 Z5.0000
G00 Z-14.5000
G01 Z-20.0000 F600
G00 Z5.0000


(No. 14: Led Holes)
G00 X53.5000 Y45.0000 Z5.0000
G00 Z-14.5000
G01 Z-20.0000 F600
G00 Z5.0000


(No. 15: Led Holes)
G00 X61.5000 Y45.0000 Z5.0000
G00 Z-14.5000
G01 Z-20.0000 F600
G00 Z5.0000


(No. 16: Led Holes)
G00 X61.5000 Y47.7500 Z5.0000
G00 Z-14.5000
G01 Z-20.0000 F600
G00 Z5.0000


(No. 17: Led Holes)
G00 X61.5000 Y42.2500 Z5.0000
G00 Z-14.5000
G01 Z-20.0000 F600
G00 Z5.0000


(No. 18: Led Holes)
G00 X78.5000 Y45.0000 Z5.0000
G00 Z-14.5000
G01 Z-20.0000 F600
G00 Z5.0000


(No. 19: Led Holes)
G00 X78.5000 Y20.0000 Z5.0000
G00 Z-14.5000
G01 Z-20.0000 F600
G00 Z5.0000


(No. 20: Led Holes)
G00 X61.5000 Y20.0000 Z5.0000
G00 Z-14.5000
G01 Z-20.0000 F600
G00 Z5.0000


(No. 21: Led Holes)
G00 X61.5000 Y22.7500 Z5.0000
G00 Z-14.5000
G01 Z-20.0000 F600
G00 Z5.0000


(No. 22: Led Holes)
G00 X61.5000 Y17.2500 Z5.0000
G00 Z-14.5000
G01 Z-20.0000 F600
G00 Z5.0000


(No. 23: Led Holes)
G00 X53.5000 Y20.0000 Z5.0000
G00 Z-14.5000
G01 Z-20.0000 F600
G00 Z5.0000


(No. 24: Led Holes)
G00 X36.5000 Y20.0000 Z5.0000
G00 Z-14.5000
G01 Z-20.0000 F600
G00 Z5.0000


(No. 25: Led Holes)
G00 X36.5000 Y22.7500 Z5.0000
G00 Z-14.5000
G01 Z-20.0000 F600
G00 Z5.0000


(No. 26: Led Holes)
G00 X36.5000 Y17.2500 Z5.0000
G00 Z-14.5000
G01 Z-20.0000 F600
G00 Z5.0000


(No. 27: Led Holes)
G00 X28.5000 Y20.0000 Z5.0000
G00 Z-14.5000
G01 Z-20.0000 F600
G00 Z5.0000


(No. 28: Led Holes)
G00 X11.5000 Y20.0000 Z5.0000
G00 Z-14.5000
G01 Z-20.0000 F600
G00 Z5.0000


(No. 29: Led Holes)
G00 X11.5000 Y22.7500 Z5.0000
G00 Z-14.5000
G01 Z-20.0000 F600
G00 Z5.0000


(No. 30: Led Holes)
G00 X11.5000 Y17.2500 Z5.0000
G00 Z-14.5000
G01 Z-20.0000 F600
G00 Z5.0000
G00 X0.0000 Y0.0000

M05
M30
