(Projekt frame)
(Erstellt mit Estlcam Version 10 Build 10,044)
(Laufzeit ca. 00:05:36 Stunden)

(Benoetigte Werkzeuge:)
(3mm)
G21
G90
G94
M03 S500
G00 Z5.0000


(Nr. 1: Ausschnitt 1)
G00 X1.8000 Y40.0500
G00 Z0.5000
G01 Z-5.0000 F1200 S500
G01 X203.2000 F500
G01 Y41.5500
G01 X1.8000
G00 Z5.0000
G00 Z0.5000
G01 Z-5.0000 F1200
G01 X1.5000 F500
G01 Y42.3000
G01 X203.5000
G01 Y39.3000
G01 X1.5000
G01 Y41.5500
G01 X1.8000
G00 Z5.0000


(Nr. 2: Gravur 1)
G00 X0.0000 Y65.5000 Z5.0000
G00 Z0.5000
G01 Z-5.0000 F1200
G01 X205.0000 F500
G00 Z5.0000


(Nr. 3: Teil 1)
G00 X-1.5000 Y0.0000 Z5.0000
G00 Z0.5000
G01 Z-7.0000 F1200
G01 X-1.4925 Y-0.1498 F500
G03 X0.0200 Y-1.5000 I1.4928 J0.1499
G01 X205.0000
G03 X206.5000 Y0.0200 I-0.0001 J1.5002
G01 Y70.0000
G03 X204.9800 Y71.5000 I-1.5002 J-0.0001
G01 X0.0000
G03 X-1.4962 Y70.1061 I0.0000 J-1.5000
G01 X-1.5000 Y69.9800
G01 Y0.0000
G01 Z-14.0000 F1200
G01 X-1.4925 Y-0.1498 F500
G03 X0.0200 Y-1.5000 I1.4928 J0.1499
G01 X205.0000
G03 X206.5000 Y0.0200 I-0.0001 J1.5002
G01 Y70.0000
G03 X204.9800 Y71.5000 I-1.5002 J-0.0001
G01 X0.0000
G03 X-1.4962 Y70.1061 I0.0000 J-1.5000
G01 X-1.5000 Y69.9800
G01 Y0.0000
G01 Z-20.0000 F1200
G01 X-1.4925 Y-0.1498 F500
G03 X0.0200 Y-1.5000 I1.4928 J0.1499
G01 X205.0000
G03 X206.5000 Y0.0200 I-0.0001 J1.5002
G01 Y70.0000
G03 X204.9800 Y71.5000 I-1.5002 J-0.0001
G01 X0.0000
G03 X-1.4962 Y70.1061 I0.0000 J-1.5000
G01 X-1.5000 Y69.9800
G01 Y0.0000
G00 Z5.0000
G00 X0.0000

M05
M30
