(Projekt frame_t2)
(Erstellt mit Estlcam Version 10 Build 10,044)
(Laufzeit ca. 00:20:42 Stunden)

(Benoetigte Werkzeuge:)
(3mm)
G21
G90
G94
M03 S500
G00 Z5.0000


(Nr. 1: Bohrung 2)
G00 X10.0000 Y20.0000
G00 Z0.5000
G01 Z-7.0000 F500 S500
G00 Z0.5000
G00 Z-6.5000
G01 Z-14.0000
G00 Z0.5000
G00 Z-13.5000
G01 Z-20.0000
G00 Z5.0000


(Nr. 2: Ausschnitt 1)
G00 X16.8000 Y40.8000 Z5.0000
G00 Z0.5000
G01 Z-5.0000 F500
G01 X653.2000
G00 Z5.0000
G00 Z0.5000
G01 Z-5.0000
G01 X653.5000
G01 Y39.3000
G01 X653.9393 Y38.8607
G01 X653.5000 Y39.3000
G01 X16.5000
G01 X16.0607 Y38.8607
G01 X16.5000 Y39.3000
G01 Y42.3000
G01 X16.0607 Y42.7393
G01 X16.5000 Y42.3000
G01 X653.5000
G01 X653.9393 Y42.7393
G01 X653.5000 Y42.3000
G01 Y40.8000
G01 X653.2000
G00 Z5.0000


(Nr. 3: Bohrung 1)
G00 X10.0000 Y50.0000 Z5.0000
G00 Z0.5000
G01 Z-7.0000 F500
G00 Z0.5000
G00 Z-6.5000
G01 Z-14.0000
G00 Z0.5000
G00 Z-13.5000
G01 Z-20.0000
G00 Z5.0000


(Nr. 4: Gravur 1)
G00 X15.0000 Y65.5000 Z5.0000
G00 Z0.5000
G01 Z-5.0000 F500
G01 X655.0000
G00 Z5.0000


(Nr. 5: Bohrung 4)
G00 X660.0000 Y50.0000 Z5.0000
G00 Z0.5000
G01 Z-7.0000 F500
G00 Z0.5000
G00 Z-6.5000
G01 Z-14.0000
G00 Z0.5000
G00 Z-13.5000
G01 Z-20.0000
G00 Z5.0000


(Nr. 6: Bohrung 3)
G00 X660.0000 Y20.0000 Z5.0000
G00 Z0.5000
G01 Z-7.0000 F500
G00 Z0.5000
G00 Z-6.5000
G01 Z-14.0000
G00 Z0.5000
G00 Z-13.5000
G01 Z-20.0000
G00 Z5.0000


(Nr. 7: Gravur 2)
G00 X15.0000 Y65.5000 Z5.0000
G00 Z0.5000
G01 Z-5.0000 F500
G01 X655.0000
G00 Z5.0000


(Nr. 8: Teil 1)
G00 X-1.5000 Y32.7400 Z5.0000
G00 Z0.5000
G01 Z-7.0000 F500
G01 Y0.0000
G01 X-1.4925 Y-0.1498
G03 X0.0200 Y-1.5000 I1.4928 J0.1499
G01 X670.0000
G03 X671.5000 Y0.0200 I-0.0001 J1.5002
G01 Y32.7600
G00 Z0.0000
G01 Y37.2600
G01 Z-7.0000
G01 Y70.0000
G03 X669.9800 Y71.5000 I-1.5002 J-0.0001
G01 X0.0000
G03 X-1.4962 Y70.1061 I0.0000 J-1.5000
G01 X-1.5000 Y69.9800
G01 Y37.2400
G00 Z0.0000
G01 Y32.7400
G00 Z-6.5000
G01 Z-14.0000
G01 Y0.0000
G01 X-1.4925 Y-0.1498
G03 X0.0200 Y-1.5000 I1.4928 J0.1499
G01 X670.0000
G03 X671.5000 Y0.0200 I-0.0001 J1.5002
G01 Y32.7600
G00 Z0.0000
G01 Y37.2600
G00 Z-6.5000
G01 Z-14.0000
G01 Y70.0000
G03 X669.9800 Y71.5000 I-1.5002 J-0.0001
G01 X0.0000
G03 X-1.4962 Y70.1061 I0.0000 J-1.5000
G01 X-1.5000 Y69.9800
G01 Y37.2400
G00 Z0.0000
G01 Y32.7400
G00 Z-13.5000
G01 Z-20.0000
G01 Y0.0000
G01 X-1.4925 Y-0.1498
G03 X0.0200 Y-1.5000 I1.4928 J0.1499
G01 X670.0000
G03 X671.5000 Y0.0200 I-0.0001 J1.5002
G01 Y32.7600
G00 Z0.0000
G01 Y37.2600
G00 Z-13.5000
G01 Z-20.0000
G01 Y70.0000
G03 X669.9800 Y71.5000 I-1.5002 J-0.0001
G01 X0.0000
G03 X-1.4962 Y70.1061 I0.0000 J-1.5000
G01 X-1.5000 Y69.9800
G01 Y37.2400
G00 Z0.0000
G01 Y32.7400
G00 Z5.0000
G00 X0.0000 Y0.0000

M05
M30
