(Projekt ledMatrix_body_led_cutout_8)
(Erstellt mit Estlcam Version 10 Build 10,044)
(Laufzeit ca. 00:04:28 Stunden)

(Benoetigte Werkzeuge:)
(2mm)
G21
G90
G94
M03 S500
G00 Z5.0000


(Nr. 1: LED Cutout)
G00 X16.0000 Y16.0000
G00 Z0.5000
G01 Z-7.0000 F1200 S500
G01 Y34.0000 F500
G01 X34.0000
G01 Y16.0000
G01 X16.0000
G01 Z-14.0000 F1200
G01 Y34.0000 F500
G01 X34.0000
G01 Y16.0000
G01 X16.0000
G01 Z-20.0000 F1200
G01 Y34.0000 F500
G01 X34.0000
G01 Y16.0000
G01 X16.0000
G00 Z5.0000


(Nr. 2: LED Cutout)
G00 X16.0000 Y41.0000 Z5.0000
G00 Z0.5000
G01 Z-7.0000 F1200
G01 Y59.0000 F500
G01 X34.0000
G01 Y41.0000
G01 X16.0000
G01 Z-14.0000 F1200
G01 Y59.0000 F500
G01 X34.0000
G01 Y41.0000
G01 X16.0000
G01 Z-20.0000 F1200
G01 Y59.0000 F500
G01 X34.0000
G01 Y41.0000
G01 X16.0000
G00 Z5.0000


(Nr. 3: LED Cutout)
G00 X16.0000 Y66.0000 Z5.0000
G00 Z0.5000
G01 Z-7.0000 F1200
G01 Y84.0000 F500
G01 X34.0000
G01 Y66.0000
G01 X16.0000
G01 Z-14.0000 F1200
G01 Y84.0000 F500
G01 X34.0000
G01 Y66.0000
G01 X16.0000
G01 Z-20.0000 F1200
G01 Y84.0000 F500
G01 X34.0000
G01 Y66.0000
G01 X16.0000
G00 Z5.0000


(Nr. 4: LED Cutout)
G00 X16.0000 Y91.0000 Z5.0000
G00 Z0.5000
G01 Z-7.0000 F1200
G01 Y109.0000 F500
G01 X34.0000
G01 Y91.0000
G01 X16.0000
G01 Z-14.0000 F1200
G01 Y109.0000 F500
G01 X34.0000
G01 Y91.0000
G01 X16.0000
G01 Z-20.0000 F1200
G01 Y109.0000 F500
G01 X34.0000
G01 Y91.0000
G01 X16.0000
G00 Z5.0000


(Nr. 5: LED Cutout)
G00 X16.0000 Y116.0000 Z5.0000
G00 Z0.5000
G01 Z-7.0000 F1200
G01 Y134.0000 F500
G01 X34.0000
G01 Y116.0000
G01 X16.0000
G01 Z-14.0000 F1200
G01 Y134.0000 F500
G01 X34.0000
G01 Y116.0000
G01 X16.0000
G01 Z-20.0000 F1200
G01 Y134.0000 F500
G01 X34.0000
G01 Y116.0000
G01 X16.0000
G00 Z5.0000


(Nr. 6: LED Cutout)
G00 X16.0000 Y141.0000 Z5.0000
G00 Z0.5000
G01 Z-7.0000 F1200
G01 Y159.0000 F500
G01 X34.0000
G01 Y141.0000
G01 X16.0000
G01 Z-14.0000 F1200
G01 Y159.0000 F500
G01 X34.0000
G01 Y141.0000
G01 X16.0000
G01 Z-20.0000 F1200
G01 Y159.0000 F500
G01 X34.0000
G01 Y141.0000
G01 X16.0000
G00 Z5.0000


(Nr. 7: LED Cutout)
G00 X16.0000 Y166.0000 Z5.0000
G00 Z0.5000
G01 Z-7.0000 F1200
G01 Y184.0000 F500
G01 X34.0000
G01 Y166.0000
G01 X16.0000
G01 Z-14.0000 F1200
G01 Y184.0000 F500
G01 X34.0000
G01 Y166.0000
G01 X16.0000
G01 Z-20.0000 F1200
G01 Y184.0000 F500
G01 X34.0000
G01 Y166.0000
G01 X16.0000
G00 Z5.0000


(Nr. 8: LED Cutout)
G00 X16.0000 Y191.0000 Z5.0000
G00 Z0.5000
G01 Z-7.0000 F1200
G01 Y209.0000 F500
G01 X34.0000
G01 Y191.0000
G01 X16.0000
G01 Z-14.0000 F1200
G01 Y209.0000 F500
G01 X34.0000
G01 Y191.0000
G01 X16.0000
G01 Z-20.0000 F1200
G01 Y209.0000 F500
G01 X34.0000
G01 Y191.0000
G01 X16.0000
G00 Z5.0000
G00 X0.0000 Y0.0000

M05
M30
