(Projekt ledMatrix_body_border)
(Erstellt mit Estlcam Version 10 Build 10,044)
(Laufzeit ca. 00:08:55 Stunden)

(Benoetigte Werkzeuge:)
(2mm)
G21
G90
G94
M03 S500
G00 Z5.0000


(Nr. 1: Teil 1)
G00 X9.0000 Y35.1597
G00 Z0.5000
G01 Z-7.0000 F1200 S500
G01 Y10.0000 F500
G01 X9.0050 Y9.9002
G03 X10.0200 Y9.0000 I0.9954 J0.1000
G01 X35.0260
G00 Z0.0000
G01 X39.0260
G01 Z-7.0000 F1200
G01 X109.8526 F500
G00 Z0.0000
G01 X113.8526
G01 Z-7.0000 F1200
G01 X184.6792 F500
G00 Z0.0000
G01 X188.6792
G01 Z-7.0000 F1200
G01 X260.0219 F500
G00 Z0.0000
G01 X264.0219
G01 Z-7.0000 F1200
G01 X323.0100 F500
G00 Z0.0000
G01 X327.0100
G01 Z-7.0000 F1200
G01 X385.4210 F500
G00 Z0.0000
G01 X389.4210
G01 Z-7.0000 F1200
G01 X460.7637 F500
G00 Z0.0000
G01 X464.7637
G01 Z-7.0000 F1200
G01 X535.5903 F500
G00 Z0.0000
G01 X539.5903
G01 Z-7.0000 F1200
G01 X610.4170 F500
G00 Z0.0000
G01 X614.4170
G01 Z-7.0000 F1200
G01 X640.0000 F500
G03 X641.0000 Y10.0200 I-0.0001 J1.0003
G01 Y35.6758
G00 Z0.0000
G01 Y39.6758
G01 Z-7.0000 F1200
G01 Y110.5100 F500
G00 Z0.0000
G01 Y114.5100
G01 Z-7.0000 F1200
G01 Y185.3290 F500
G00 Z0.0000
G01 Y189.3290
G01 Z-7.0000 F1200
G01 Y215.0000 F500
G03 X639.9800 Y216.0000 I-1.0003 J-0.0001
G01 X614.4170
G00 Z0.0000
G01 X610.4170
G01 Z-7.0000 F1200
G01 X539.0743 F500
G00 Z0.0000
G01 X535.0743
G01 Z-7.0000 F1200
G01 X463.7316 F500
G00 Z0.0000
G01 X459.7316
G01 Z-7.0000 F1200
G01 X388.9050 F500
G00 Z0.0000
G01 X384.9050
G01 Z-7.0000 F1200
G01 X326.9900 F500
G00 Z0.0000
G01 X322.9900
G01 Z-7.0000 F1200
G01 X264.5380 F500
G00 Z0.0000
G01 X260.5380
G01 Z-7.0000 F1200
G01 X187.6471 F500
G00 Z0.0000
G01 X183.6471
G01 Z-7.0000 F1200
G01 X114.3686 F500
G00 Z0.0000
G01 X110.3686
G01 Z-7.0000 F1200
G01 X39.5420 F500
G00 Z0.0000
G01 X35.5420
G01 Z-7.0000 F1200
G01 X10.0000 F500
G03 X9.0025 Y215.0707 I0.0000 J-1.0000
G01 X9.0000 Y214.9800
G01 Y188.2969
G00 Z0.0000
G01 Y184.2969
G01 Z-7.0000 F1200
G01 Y114.4900 F500
G00 Z0.0000
G01 Y110.4900
G01 Z-7.0000 F1200
G01 Y39.1597 F500
G00 Z0.0000
G01 Y35.1597
G00 Z-6.5000
G01 Z-14.0000 F1200
G01 Y10.0000 F500
G01 X9.0050 Y9.9002
G03 X10.0200 Y9.0000 I0.9954 J0.1000
G01 X35.0260
G00 Z0.0000
G01 X39.0260
G00 Z-6.5000
G01 Z-14.0000 F1200
G01 X109.8526 F500
G00 Z0.0000
G01 X113.8526
G00 Z-6.5000
G01 Z-14.0000 F1200
G01 X184.6792 F500
G00 Z0.0000
G01 X188.6792
G00 Z-6.5000
G01 Z-14.0000 F1200
G01 X260.0219 F500
G00 Z0.0000
G01 X264.0219
G00 Z-6.5000
G01 Z-14.0000 F1200
G01 X323.0100 F500
G00 Z0.0000
G01 X327.0100
G00 Z-6.5000
G01 Z-14.0000 F1200
G01 X385.4210 F500
G00 Z0.0000
G01 X389.4210
G00 Z-6.5000
G01 Z-14.0000 F1200
G01 X460.7637 F500
G00 Z0.0000
G01 X464.7637
G00 Z-6.5000
G01 Z-14.0000 F1200
G01 X535.5903 F500
G00 Z0.0000
G01 X539.5903
G00 Z-6.5000
G01 Z-14.0000 F1200
G01 X610.4170 F500
G00 Z0.0000
G01 X614.4170
G00 Z-6.5000
G01 Z-14.0000 F1200
G01 X640.0000 F500
G03 X641.0000 Y10.0200 I-0.0001 J1.0003
G01 Y35.6758
G00 Z0.0000
G01 Y39.6758
G00 Z-6.5000
G01 Z-14.0000 F1200
G01 Y110.5100 F500
G00 Z0.0000
G01 Y114.5100
G00 Z-6.5000
G01 Z-14.0000 F1200
G01 Y185.3290 F500
G00 Z0.0000
G01 Y189.3290
G00 Z-6.5000
G01 Z-14.0000 F1200
G01 Y215.0000 F500
G03 X639.9800 Y216.0000 I-1.0003 J-0.0001
G01 X614.4170
G00 Z0.0000
G01 X610.4170
G00 Z-6.5000
G01 Z-14.0000 F1200
G01 X539.0743 F500
G00 Z0.0000
G01 X535.0743
G00 Z-6.5000
G01 Z-14.0000 F1200
G01 X463.7316 F500
G00 Z0.0000
G01 X459.7316
G00 Z-6.5000
G01 Z-14.0000 F1200
G01 X388.9050 F500
G00 Z0.0000
G01 X384.9050
G00 Z-6.5000
G01 Z-14.0000 F1200
G01 X326.9900 F500
G00 Z0.0000
G01 X322.9900
G00 Z-6.5000
G01 Z-14.0000 F1200
G01 X264.5380 F500
G00 Z0.0000
G01 X260.5380
G00 Z-6.5000
G01 Z-14.0000 F1200
G01 X187.6471 F500
G00 Z0.0000
G01 X183.6471
G00 Z-6.5000
G01 Z-14.0000 F1200
G01 X114.3686 F500
G00 Z0.0000
G01 X110.3686
G00 Z-6.5000
G01 Z-14.0000 F1200
G01 X39.5420 F500
G00 Z0.0000
G01 X35.5420
G00 Z-6.5000
G01 Z-14.0000 F1200
G01 X10.0000 F500
G03 X9.0025 Y215.0707 I0.0000 J-1.0000
G01 X9.0000 Y214.9800
G01 Y188.2969
G00 Z0.0000
G01 Y184.2969
G00 Z-6.5000
G01 Z-14.0000 F1200
G01 Y114.4900 F500
G00 Z0.0000
G01 Y110.4900
G00 Z-6.5000
G01 Z-14.0000 F1200
G01 Y39.1597 F500
G00 Z0.0000
G01 Y35.1597
G00 Z-13.5000
G01 Z-20.0000 F1200
G01 Y10.0000 F500
G01 X9.0050 Y9.9002
G03 X10.0200 Y9.0000 I0.9954 J0.1000
G01 X35.0260
G00 Z0.0000
G01 X39.0260
G00 Z-13.5000
G01 Z-20.0000 F1200
G01 X109.8526 F500
G00 Z0.0000
G01 X113.8526
G00 Z-13.5000
G01 Z-20.0000 F1200
G01 X184.6792 F500
G00 Z0.0000
G01 X188.6792
G00 Z-13.5000
G01 Z-20.0000 F1200
G01 X260.0219 F500
G00 Z0.0000
G01 X264.0219
G00 Z-13.5000
G01 Z-20.0000 F1200
G01 X323.0100 F500
G00 Z0.0000
G01 X327.0100
G00 Z-13.5000
G01 Z-20.0000 F1200
G01 X385.4210 F500
G00 Z0.0000
G01 X389.4210
G00 Z-13.5000
G01 Z-20.0000 F1200
G01 X460.7637 F500
G00 Z0.0000
G01 X464.7637
G00 Z-13.5000
G01 Z-20.0000 F1200
G01 X535.5903 F500
G00 Z0.0000
G01 X539.5903
G00 Z-13.5000
G01 Z-20.0000 F1200
G01 X610.4170 F500
G00 Z0.0000
G01 X614.4170
G00 Z-13.5000
G01 Z-20.0000 F1200
G01 X640.0000 F500
G03 X641.0000 Y10.0200 I-0.0001 J1.0003
G01 Y35.6758
G00 Z0.0000
G01 Y39.6758
G00 Z-13.5000
G01 Z-20.0000 F1200
G01 Y110.5100 F500
G00 Z0.0000
G01 Y114.5100
G00 Z-13.5000
G01 Z-20.0000 F1200
G01 Y185.3290 F500
G00 Z0.0000
G01 Y189.3290
G00 Z-13.5000
G01 Z-20.0000 F1200
G01 Y215.0000 F500
G03 X639.9800 Y216.0000 I-1.0003 J-0.0001
G01 X614.4170
G00 Z0.0000
G01 X610.4170
G00 Z-13.5000
G01 Z-20.0000 F1200
G01 X539.0743 F500
G00 Z0.0000
G01 X535.0743
G00 Z-13.5000
G01 Z-20.0000 F1200
G01 X463.7316 F500
G00 Z0.0000
G01 X459.7316
G00 Z-13.5000
G01 Z-20.0000 F1200
G01 X388.9050 F500
G00 Z0.0000
G01 X384.9050
G00 Z-13.5000
G01 Z-20.0000 F1200
G01 X326.9900 F500
G00 Z0.0000
G01 X322.9900
G00 Z-13.5000
G01 Z-20.0000 F1200
G01 X264.5380 F500
G00 Z0.0000
G01 X260.5380
G00 Z-13.5000
G01 Z-20.0000 F1200
G01 X187.6471 F500
G00 Z0.0000
G01 X183.6471
G00 Z-13.5000
G01 Z-20.0000 F1200
G01 X114.3686 F500
G00 Z0.0000
G01 X110.3686
G00 Z-13.5000
G01 Z-20.0000 F1200
G01 X39.5420 F500
G00 Z0.0000
G01 X35.5420
G00 Z-13.5000
G01 Z-20.0000 F1200
G01 X10.0000 F500
G03 X9.0025 Y215.0707 I0.0000 J-1.0000
G01 X9.0000 Y214.9800
G01 Y188.2969
G00 Z0.0000
G01 Y184.2969
G00 Z-13.5000
G01 Z-20.0000 F1200
G01 Y114.4900 F500
G00 Z0.0000
G01 Y110.4900
G00 Z-13.5000
G01 Z-20.0000 F1200
G01 Y39.1597 F500
G00 Z0.0000
G01 Y35.1597
G00 Z5.0000
G00 X0.0000 Y0.0000

M05
M30
