(Project ledMatrix_body_border_3mm_border)
(Created by Estlcam version 10 build 10,044)
(Machining time about 00:05:12 hours)

(Required tools:)
(Fraeser 3mm)
G21
G90
G94
M03 S24000
G00 Z5.0000


(No. 1: Teil 1)
G00 X-1.5000 Y100.9900
G00 Z0.5000
G01 Z-7.5000 F600 S24000
G01 Y0.0000 F1200
G01 X-1.4925 Y-0.1498
G03 X0.0200 Y-1.5000 I1.4928 J0.1499
G01 X313.5100
G01 X318.5100
G01 X632.0000
G03 X633.5000 Y0.0200 I-0.0001 J1.5002
G01 Y101.0100
G01 Y106.0100
G01 Y207.0000
G03 X631.9800 Y208.5000 I-1.5002 J-0.0001
G01 X318.4900
G01 X313.4900
G01 X0.0000
G03 X-1.4962 Y207.1061 I0.0000 J-1.5000
G01 X-1.5000 Y206.9800
G01 Y105.9900
G01 Y100.9900
G01 Z-15.0000 F600
G01 Y0.0000 F1200
G01 X-1.4925 Y-0.1498
G03 X0.0200 Y-1.5000 I1.4928 J0.1499
G01 X313.5100
G01 X318.5100
G01 X632.0000
G03 X633.5000 Y0.0200 I-0.0001 J1.5002
G01 Y101.0100
G01 Y106.0100
G01 Y207.0000
G03 X631.9800 Y208.5000 I-1.5002 J-0.0001
G01 X318.4900
G01 X313.4900
G01 X0.0000
G03 X-1.4962 Y207.1061 I0.0000 J-1.5000
G01 X-1.5000 Y206.9800
G01 Y105.9900
G01 Y100.9900
G01 Z-20.0000 F600
G01 Y0.0000 F1200
G01 X-1.4925 Y-0.1498
G03 X0.0200 Y-1.5000 I1.4928 J0.1499
G01 X313.5100
G00 Z-19.0000
G01 X318.5100
G01 Z-20.0000 F600
G01 X632.0000 F1200
G03 X633.5000 Y0.0200 I-0.0001 J1.5002
G01 Y101.0100
G00 Z-19.0000
G01 Y106.0100
G01 Z-20.0000 F600
G01 Y207.0000 F1200
G03 X631.9800 Y208.5000 I-1.5002 J-0.0001
G01 X318.4900
G00 Z-19.0000
G01 X313.4900
G01 Z-20.0000 F600
G01 X0.0000 F1200
G03 X-1.4962 Y207.1061 I0.0000 J-1.5000
G01 X-1.5000 Y206.9800
G01 Y105.9900
G00 Z-19.0000
G01 Y100.9900
G00 Z5.0000
G00 X0.0000 Y0.0000

M05
M30
