(Projekt ledMatrix_led_holes_16)
(Erstellt mit Estlcam Version 10 Build 10,044)
(Laufzeit ca. 00:17:10 Stunden)

(Benoetigte Werkzeuge:)
(funy)
G21
G90
G94
M03 S24000
G00 Z5.0000


(Nr. 1: Bohrung 3)
G00 X11.5000 Y17.2500
G00 Z0.5000
G01 Z-2.0000 F100 S24000
G00 Z5.0000


(Nr. 2: Bohrung 2)
G00 X11.5000 Y20.0000 Z5.0000
G00 Z0.5000
G01 Z-2.0000 F100
G00 Z5.0000


(Nr. 3: Bohrung 1)
G00 X11.5000 Y22.7500 Z5.0000
G00 Z0.5000
G01 Z-2.0000 F100
G00 Z5.0000


(Nr. 4: Bohrung 4)
G00 X28.5000 Y20.0000 Z5.0000
G00 Z0.5000
G01 Z-2.0000 F100
G00 Z5.0000


(Nr. 5: Bohrung 2)
G00 X36.5000 Y20.0000 Z5.0000
G00 Z0.5000
G01 Z-2.0000 F100
G00 Z5.0000


(Nr. 6: Bohrung 1)
G00 X36.5000 Y22.7500 Z5.0000
G00 Z0.5000
G01 Z-2.0000 F100
G00 Z5.0000


(Nr. 7: Bohrung 3)
G00 X36.5000 Y17.2500 Z5.0000
G00 Z0.5000
G01 Z-2.0000 F100
G00 Z5.0000


(Nr. 8: Bohrung 4)
G00 X53.5000 Y20.0000 Z5.0000
G00 Z0.5000
G01 Z-2.0000 F100
G00 Z5.0000


(Nr. 9: Bohrung 4)
G00 X53.5000 Y45.0000 Z5.0000
G00 Z0.5000
G01 Z-2.0000 F100
G00 Z5.0000


(Nr. 10: Bohrung 2)
G00 X36.5000 Y45.0000 Z5.0000
G00 Z0.5000
G01 Z-2.0000 F100
G00 Z5.0000


(Nr. 11: Bohrung 1)
G00 X36.5000 Y47.7500 Z5.0000
G00 Z0.5000
G01 Z-2.0000 F100
G00 Z5.0000


(Nr. 12: Bohrung 3)
G00 X36.5000 Y42.2500 Z5.0000
G00 Z0.5000
G01 Z-2.0000 F100
G00 Z5.0000


(Nr. 13: Bohrung 4)
G00 X28.5000 Y45.0000 Z5.0000
G00 Z0.5000
G01 Z-2.0000 F100
G00 Z5.0000


(Nr. 14: Bohrung 2)
G00 X11.5000 Y45.0000 Z5.0000
G00 Z0.5000
G01 Z-2.0000 F100
G00 Z5.0000


(Nr. 15: Bohrung 1)
G00 X11.5000 Y47.7500 Z5.0000
G00 Z0.5000
G01 Z-2.0000 F100
G00 Z5.0000


(Nr. 16: Bohrung 3)
G00 X11.5000 Y42.2500 Z5.0000
G00 Z0.5000
G01 Z-2.0000 F100
G00 Z5.0000


(Nr. 17: Bohrung 3)
G00 X11.5000 Y67.2500 Z5.0000
G00 Z0.5000
G01 Z-2.0000 F100
G00 Z5.0000


(Nr. 18: Bohrung 2)
G00 X11.5000 Y70.0000 Z5.0000
G00 Z0.5000
G01 Z-2.0000 F100
G00 Z5.0000


(Nr. 19: Bohrung 1)
G00 X11.5000 Y72.7500 Z5.0000
G00 Z0.5000
G01 Z-2.0000 F100
G00 Z5.0000


(Nr. 20: Bohrung 4)
G00 X28.5000 Y70.0000 Z5.0000
G00 Z0.5000
G01 Z-2.0000 F100
G00 Z5.0000


(Nr. 21: Bohrung 2)
G00 X36.5000 Y70.0000 Z5.0000
G00 Z0.5000
G01 Z-2.0000 F100
G00 Z5.0000


(Nr. 22: Bohrung 1)
G00 X36.5000 Y72.7500 Z5.0000
G00 Z0.5000
G01 Z-2.0000 F100
G00 Z5.0000


(Nr. 23: Bohrung 3)
G00 X36.5000 Y67.2500 Z5.0000
G00 Z0.5000
G01 Z-2.0000 F100
G00 Z5.0000


(Nr. 24: Bohrung 4)
G00 X53.5000 Y70.0000 Z5.0000
G00 Z0.5000
G01 Z-2.0000 F100
G00 Z5.0000


(Nr. 25: Bohrung 4)
G00 X53.5000 Y95.0000 Z5.0000
G00 Z0.5000
G01 Z-2.0000 F100
G00 Z5.0000


(Nr. 26: Bohrung 2)
G00 X36.5000 Y95.0000 Z5.0000
G00 Z0.5000
G01 Z-2.0000 F100
G00 Z5.0000


(Nr. 27: Bohrung 1)
G00 X36.5000 Y97.7500 Z5.0000
G00 Z0.5000
G01 Z-2.0000 F100
G00 Z5.0000


(Nr. 28: Bohrung 3)
G00 X36.5000 Y92.2500 Z5.0000
G00 Z0.5000
G01 Z-2.0000 F100
G00 Z5.0000


(Nr. 29: Bohrung 4)
G00 X28.5000 Y95.0000 Z5.0000
G00 Z0.5000
G01 Z-2.0000 F100
G00 Z5.0000


(Nr. 30: Bohrung 2)
G00 X11.5000 Y95.0000 Z5.0000
G00 Z0.5000
G01 Z-2.0000 F100
G00 Z5.0000


(Nr. 31: Bohrung 1)
G00 X11.5000 Y97.7500 Z5.0000
G00 Z0.5000
G01 Z-2.0000 F100
G00 Z5.0000


(Nr. 32: Bohrung 3)
G00 X11.5000 Y92.2500 Z5.0000
G00 Z0.5000
G01 Z-2.0000 F100
G00 Z5.0000


(Nr. 33: Bohrung 3)
G00 X11.5000 Y117.2500 Z5.0000
G00 Z0.5000
G01 Z-2.0000 F100
G00 Z5.0000


(Nr. 34: Bohrung 2)
G00 X11.5000 Y120.0000 Z5.0000
G00 Z0.5000
G01 Z-2.0000 F100
G00 Z5.0000


(Nr. 35: Bohrung 1)
G00 X11.5000 Y122.7500 Z5.0000
G00 Z0.5000
G01 Z-2.0000 F100
G00 Z5.0000


(Nr. 36: Bohrung 4)
G00 X28.5000 Y120.0000 Z5.0000
G00 Z0.5000
G01 Z-2.0000 F100
G00 Z5.0000


(Nr. 37: Bohrung 2)
G00 X36.5000 Y120.0000 Z5.0000
G00 Z0.5000
G01 Z-2.0000 F100
G00 Z5.0000


(Nr. 38: Bohrung 1)
G00 X36.5000 Y122.7500 Z5.0000
G00 Z0.5000
G01 Z-2.0000 F100
G00 Z5.0000


(Nr. 39: Bohrung 3)
G00 X36.5000 Y117.2500 Z5.0000
G00 Z0.5000
G01 Z-2.0000 F100
G00 Z5.0000


(Nr. 40: Bohrung 4)
G00 X53.5000 Y120.0000 Z5.0000
G00 Z0.5000
G01 Z-2.0000 F100
G00 Z5.0000


(Nr. 41: Bohrung 4)
G00 X53.5000 Y145.0000 Z5.0000
G00 Z0.5000
G01 Z-2.0000 F100
G00 Z5.0000


(Nr. 42: Bohrung 2)
G00 X36.5000 Y145.0000 Z5.0000
G00 Z0.5000
G01 Z-2.0000 F100
G00 Z5.0000


(Nr. 43: Bohrung 1)
G00 X36.5000 Y147.7500 Z5.0000
G00 Z0.5000
G01 Z-2.0000 F100
G00 Z5.0000


(Nr. 44: Bohrung 3)
G00 X36.5000 Y142.2500 Z5.0000
G00 Z0.5000
G01 Z-2.0000 F100
G00 Z5.0000


(Nr. 45: Bohrung 4)
G00 X28.5000 Y145.0000 Z5.0000
G00 Z0.5000
G01 Z-2.0000 F100
G00 Z5.0000


(Nr. 46: Bohrung 2)
G00 X11.5000 Y145.0000 Z5.0000
G00 Z0.5000
G01 Z-2.0000 F100
G00 Z5.0000


(Nr. 47: Bohrung 1)
G00 X11.5000 Y147.7500 Z5.0000
G00 Z0.5000
G01 Z-2.0000 F100
G00 Z5.0000


(Nr. 48: Bohrung 3)
G00 X11.5000 Y142.2500 Z5.0000
G00 Z0.5000
G01 Z-2.0000 F100
G00 Z5.0000


(Nr. 49: Bohrung 3)
G00 X11.5000 Y167.2500 Z5.0000
G00 Z0.5000
G01 Z-2.0000 F100
G00 Z5.0000


(Nr. 50: Bohrung 2)
G00 X11.5000 Y170.0000 Z5.0000
G00 Z0.5000
G01 Z-2.0000 F100
G00 Z5.0000


(Nr. 51: Bohrung 1)
G00 X11.5000 Y172.7500 Z5.0000
G00 Z0.5000
G01 Z-2.0000 F100
G00 Z5.0000


(Nr. 52: Bohrung 4)
G00 X28.5000 Y170.0000 Z5.0000
G00 Z0.5000
G01 Z-2.0000 F100
G00 Z5.0000


(Nr. 53: Bohrung 2)
G00 X36.5000 Y170.0000 Z5.0000
G00 Z0.5000
G01 Z-2.0000 F100
G00 Z5.0000


(Nr. 54: Bohrung 1)
G00 X36.5000 Y172.7500 Z5.0000
G00 Z0.5000
G01 Z-2.0000 F100
G00 Z5.0000


(Nr. 55: Bohrung 3)
G00 X36.5000 Y167.2500 Z5.0000
G00 Z0.5000
G01 Z-2.0000 F100
G00 Z5.0000


(Nr. 56: Bohrung 4)
G00 X53.5000 Y170.0000 Z5.0000
G00 Z0.5000
G01 Z-2.0000 F100
G00 Z5.0000


(Nr. 57: Bohrung 4)
G00 X53.5000 Y195.0000 Z5.0000
G00 Z0.5000
G01 Z-2.0000 F100
G00 Z5.0000


(Nr. 58: Bohrung 2)
G00 X36.5000 Y195.0000 Z5.0000
G00 Z0.5000
G01 Z-2.0000 F100
G00 Z5.0000


(Nr. 59: Bohrung 1)
G00 X36.5000 Y197.7500 Z5.0000
G00 Z0.5000
G01 Z-2.0000 F100
G00 Z5.0000


(Nr. 60: Bohrung 3)
G00 X36.5000 Y192.2500 Z5.0000
G00 Z0.5000
G01 Z-2.0000 F100
G00 Z5.0000


(Nr. 61: Bohrung 4)
G00 X28.5000 Y195.0000 Z5.0000
G00 Z0.5000
G01 Z-2.0000 F100
G00 Z5.0000


(Nr. 62: Bohrung 2)
G00 X11.5000 Y195.0000 Z5.0000
G00 Z0.5000
G01 Z-2.0000 F100
G00 Z5.0000


(Nr. 63: Bohrung 1)
G00 X11.5000 Y197.7500 Z5.0000
G00 Z0.5000
G01 Z-2.0000 F100
G00 Z5.0000


(Nr. 64: Bohrung 3)
G00 X11.5000 Y192.2500 Z5.0000
G00 Z0.5000
G01 Z-2.0000 F100
G00 Z5.0000
G00 X0.0000 Y0.0000

M05
M30
