(Projekt ledMatrix_led_board_cutout)
(Erstellt mit Estlcam Version 10 Build 10,044)
(Laufzeit ca. 00:16:01 Stunden)

(Benoetigte Werkzeuge:)
(1,2mm borer)
G21
G90
G94
M03 S500
G00 Z5.0000


(Nr. 1: Teil 1)
G00 X-0.6000 Y84.6226
G00 Z0.5000
G01 Z-2.0000 F300 S500
G01 Y0.0000 F500
G01 X-0.5970 Y-0.0599
G03 X0.0200 Y-0.6000 I0.5976 J0.0602
G01 X82.2699
G01 X84.9699
G01 X254.2084
G01 X256.9084
G01 X426.1490
G01 X428.8490
G01 X598.0828
G01 X600.7828
G01 X640.0000
G03 X640.6000 Y0.0200 I-0.0002 J0.6005
G01 Y127.6774
G01 Y130.3774
G01 Y215.0000
G03 X639.9800 Y215.6000 I-0.6005 J-0.0002
G01 X557.7301
G01 X555.0301
G01 X385.7916
G01 X383.0916
G01 X213.8510
G01 X211.1510
G01 X41.9172
G01 X39.2172
G01 X0.0000
G03 X-0.5985 Y215.0424 I0.0000 J-0.6000
G01 X-0.6000 Y214.9800
G01 Y87.3226
G01 Y84.6226
G01 Z-4.0000 F300
G01 Y0.0000 F500
G01 X-0.5970 Y-0.0599
G03 X0.0200 Y-0.6000 I0.5976 J0.0602
G01 X82.2699
G01 X84.9699
G01 X254.2084
G01 X256.9084
G01 X426.1490
G01 X428.8490
G01 X598.0828
G01 X600.7828
G01 X640.0000
G03 X640.6000 Y0.0200 I-0.0002 J0.6005
G01 Y127.6774
G01 Y130.3774
G01 Y215.0000
G03 X639.9800 Y215.6000 I-0.6005 J-0.0002
G01 X557.7301
G01 X555.0301
G01 X385.7916
G01 X383.0916
G01 X213.8510
G01 X211.1510
G01 X41.9172
G01 X39.2172
G01 X0.0000
G03 X-0.5985 Y215.0424 I0.0000 J-0.6000
G01 X-0.6000 Y214.9800
G01 Y87.3226
G01 Y84.6226
G01 Z-6.0000 F300
G01 Y0.0000 F500
G01 X-0.5970 Y-0.0599
G03 X0.0200 Y-0.6000 I0.5976 J0.0602
G01 X82.2699
G01 X84.9699
G01 X254.2084
G01 X256.9084
G01 X426.1490
G01 X428.8490
G01 X598.0828
G01 X600.7828
G01 X640.0000
G03 X640.6000 Y0.0200 I-0.0002 J0.6005
G01 Y127.6774
G01 Y130.3774
G01 Y215.0000
G03 X639.9800 Y215.6000 I-0.6005 J-0.0002
G01 X557.7301
G01 X555.0301
G01 X385.7916
G01 X383.0916
G01 X213.8510
G01 X211.1510
G01 X41.9172
G01 X39.2172
G01 X0.0000
G03 X-0.5985 Y215.0424 I0.0000 J-0.6000
G01 X-0.6000 Y214.9800
G01 Y87.3226
G01 Y84.6226
G01 Z-8.0000 F300
G01 Y0.0000 F500
G01 X-0.5970 Y-0.0599
G03 X0.0200 Y-0.6000 I0.5976 J0.0602
G01 X82.2699
G00 Z-6.0000
G01 X84.9699
G01 Z-8.0000 F300
G01 X254.2084 F500
G00 Z-6.0000
G01 X256.9084
G01 Z-8.0000 F300
G01 X426.1490 F500
G00 Z-6.0000
G01 X428.8490
G01 Z-8.0000 F300
G01 X598.0828 F500
G00 Z-6.0000
G01 X600.7828
G01 Z-8.0000 F300
G01 X640.0000 F500
G03 X640.6000 Y0.0200 I-0.0002 J0.6005
G01 Y127.6774
G00 Z-6.0000
G01 Y130.3774
G01 Z-8.0000 F300
G01 Y215.0000 F500
G03 X639.9800 Y215.6000 I-0.6005 J-0.0002
G01 X557.7301
G00 Z-6.0000
G01 X555.0301
G01 Z-8.0000 F300
G01 X385.7916 F500
G00 Z-6.0000
G01 X383.0916
G01 Z-8.0000 F300
G01 X213.8510 F500
G00 Z-6.0000
G01 X211.1510
G01 Z-8.0000 F300
G01 X41.9172 F500
G00 Z-6.0000
G01 X39.2172
G01 Z-8.0000 F300
G01 X0.0000 F500
G03 X-0.5985 Y215.0424 I0.0000 J-0.6000
G01 X-0.6000 Y214.9800
G01 Y87.3226
G00 Z-6.0000
G01 Y84.6226
G00 Z5.0000
G00 X0.0000 Y0.0000

M05
M30
