(Project ledMatrix_body_border_3mm)
(Created by Estlcam version 10 build 10,044)
(Machining time about 00:02:36 hours)

(Required tools:)
(Fraeser 3mm)
G21
G90
G94
M03 S24000
G00 Z5.0000


(No. 1: Ausschnitt 1)
G00 X4.5000 Y4.5000
G00 Z0.5000
G01 Z-7.5000 F600 S24000
G01 Y23.5000 F1200
G01 X23.5000
G01 Y4.5000
G01 X4.5000
G01 Z-15.0000 F600
G01 Y23.5000 F1200
G01 X23.5000
G01 Y4.5000
G01 X4.5000
G01 Z-20.0000 F600
G01 Y23.5000 F1200
G01 X23.5000
G01 Y4.5000
G01 X4.5000
G00 Z5.0000


(No. 2: Ausschnitt 1)
G00 X29.5000 Y4.5000 Z5.0000
G00 Z0.5000
G01 Z-7.5000 F600
G01 Y23.5000 F1200
G01 X48.5000
G01 Y4.5000
G01 X29.5000
G01 Z-15.0000 F600
G01 Y23.5000 F1200
G01 X48.5000
G01 Y4.5000
G01 X29.5000
G01 Z-20.0000 F600
G01 Y23.5000 F1200
G01 X48.5000
G01 Y4.5000
G01 X29.5000
G00 Z5.0000


(No. 3: Ausschnitt 1)
G00 X54.5000 Y4.5000 Z5.0000
G00 Z0.5000
G01 Z-7.5000 F600
G01 Y23.5000 F1200
G01 X73.5000
G01 Y4.5000
G01 X54.5000
G01 Z-15.0000 F600
G01 Y23.5000 F1200
G01 X73.5000
G01 Y4.5000
G01 X54.5000
G01 Z-20.0000 F600
G01 Y23.5000 F1200
G01 X73.5000
G01 Y4.5000
G01 X54.5000
G00 Z5.0000


(No. 4: Ausschnitt 1)
G00 X54.5000 Y29.5000 Z5.0000
G00 Z0.5000
G01 Z-7.5000 F600
G01 Y48.5000 F1200
G01 X73.5000
G01 Y29.5000
G01 X54.5000
G01 Z-15.0000 F600
G01 Y48.5000 F1200
G01 X73.5000
G01 Y29.5000
G01 X54.5000
G01 Z-20.0000 F600
G01 Y48.5000 F1200
G01 X73.5000
G01 Y29.5000
G01 X54.5000
G00 Z5.0000


(No. 5: Ausschnitt 1)
G00 X29.5000 Y29.5000 Z5.0000
G00 Z0.5000
G01 Z-7.5000 F600
G01 Y48.5000 F1200
G01 X48.5000
G01 Y29.5000
G01 X29.5000
G01 Z-15.0000 F600
G01 Y48.5000 F1200
G01 X48.5000
G01 Y29.5000
G01 X29.5000
G01 Z-20.0000 F600
G01 Y48.5000 F1200
G01 X48.5000
G01 Y29.5000
G01 X29.5000
G00 Z5.0000


(No. 6: Ausschnitt 1)
G00 X4.5000 Y29.5000 Z5.0000
G00 Z0.5000
G01 Z-7.5000 F600
G01 Y48.5000 F1200
G01 X23.5000
G01 Y29.5000
G01 X4.5000
G01 Z-15.0000 F600
G01 Y48.5000 F1200
G01 X23.5000
G01 Y29.5000
G01 X4.5000
G01 Z-20.0000 F600
G01 Y48.5000 F1200
G01 X23.5000
G01 Y29.5000
G01 X4.5000
G00 Z5.0000


(No. 7: Teil 1)
G00 X-1.5000 Y23.9900 Z5.0000
G00 Z0.5000
G01 Z-7.5000 F600
G01 Y0.0000 F1200
G01 X-1.4925 Y-0.1498
G03 X0.0200 Y-1.5000 I1.4928 J0.1499
G01 X78.0000
G03 X79.5000 Y0.0200 I-0.0001 J1.5002
G01 Y24.0100
G01 Y29.0100
G01 Y53.0000
G03 X77.9800 Y54.5000 I-1.5002 J-0.0001
G01 X0.0000
G03 X-1.4962 Y53.1061 I0.0000 J-1.5000
G01 X-1.5000 Y52.9800
G01 Y28.9900
G01 Y23.9900
G01 Z-15.0000 F600
G01 Y0.0000 F1200
G01 X-1.4925 Y-0.1498
G03 X0.0200 Y-1.5000 I1.4928 J0.1499
G01 X78.0000
G03 X79.5000 Y0.0200 I-0.0001 J1.5002
G01 Y24.0100
G01 Y29.0100
G01 Y53.0000
G03 X77.9800 Y54.5000 I-1.5002 J-0.0001
G01 X0.0000
G03 X-1.4962 Y53.1061 I0.0000 J-1.5000
G01 X-1.5000 Y52.9800
G01 Y28.9900
G01 Y23.9900
G01 Z-20.0000 F600
G01 Y0.0000 F1200
G01 X-1.4925 Y-0.1498
G03 X0.0200 Y-1.5000 I1.4928 J0.1499
G01 X78.0000
G03 X79.5000 Y0.0200 I-0.0001 J1.5002
G01 Y24.0100
G00 Z-17.0000
G01 Y29.0100
G01 Z-20.0000 F600
G01 Y53.0000 F1200
G03 X77.9800 Y54.5000 I-1.5002 J-0.0001
G01 X0.0000
G03 X-1.4962 Y53.1061 I0.0000 J-1.5000
G01 X-1.5000 Y52.9800
G01 Y28.9900
G00 Z-17.0000
G01 Y23.9900
G00 Z5.0000
G00 X0.0000 Y0.0000

M05
M30
