(Project ledMatrix_body_border_3mm_5x8_coutoutsl)
(Created by Estlcam version 10 build 10,044)
(Machining time about 00:12:07 hours)

(Required tools:)
(Fraeser 3mm)
G21
G90
G94
M03 S24000
G00 Z5.0000


(No. 1: Ausschnitt 1)
G00 X6.5000 Y6.5000
G00 Z0.5000
G01 Z-7.5000 F600 S24000
G01 Y25.5000 F1200
G01 X25.5000
G01 Y6.5000
G01 X6.5000
G01 Z-15.0000 F600
G01 Y25.5000 F1200
G01 X25.5000
G01 Y6.5000
G01 X6.5000
G01 Z-20.0000 F600
G01 Y25.5000 F1200
G01 X25.5000
G01 Y6.5000
G01 X6.5000
G00 Z5.0000


(No. 2: Ausschnitt 1)
G00 X31.5000 Y6.5000 Z5.0000
G00 Z0.5000
G01 Z-7.5000 F600
G01 Y25.5000 F1200
G01 X50.5000
G01 Y6.5000
G01 X31.5000
G01 Z-15.0000 F600
G01 Y25.5000 F1200
G01 X50.5000
G01 Y6.5000
G01 X31.5000
G01 Z-20.0000 F600
G01 Y25.5000 F1200
G01 X50.5000
G01 Y6.5000
G01 X31.5000
G00 Z5.0000


(No. 3: Ausschnitt 1)
G00 X56.5000 Y6.5000 Z5.0000
G00 Z0.5000
G01 Z-7.5000 F600
G01 Y25.5000 F1200
G01 X75.5000
G01 Y6.5000
G01 X56.5000
G01 Z-15.0000 F600
G01 Y25.5000 F1200
G01 X75.5000
G01 Y6.5000
G01 X56.5000
G01 Z-20.0000 F600
G01 Y25.5000 F1200
G01 X75.5000
G01 Y6.5000
G01 X56.5000
G00 Z5.0000


(No. 4: Ausschnitt 1)
G00 X81.5000 Y6.5000 Z5.0000
G00 Z0.5000
G01 Z-7.5000 F600
G01 Y25.5000 F1200
G01 X100.5000
G01 Y6.5000
G01 X81.5000
G01 Z-15.0000 F600
G01 Y25.5000 F1200
G01 X100.5000
G01 Y6.5000
G01 X81.5000
G01 Z-20.0000 F600
G01 Y25.5000 F1200
G01 X100.5000
G01 Y6.5000
G01 X81.5000
G00 Z5.0000


(No. 5: Ausschnitt 1)
G00 X106.5000 Y6.5000 Z5.0000
G00 Z0.5000
G01 Z-7.5000 F600
G01 Y25.5000 F1200
G01 X125.5000
G01 Y6.5000
G01 X106.5000
G01 Z-15.0000 F600
G01 Y25.5000 F1200
G01 X125.5000
G01 Y6.5000
G01 X106.5000
G01 Z-20.0000 F600
G01 Y25.5000 F1200
G01 X125.5000
G01 Y6.5000
G01 X106.5000
G00 Z5.0000


(No. 6: Ausschnitt 1)
G00 X106.5000 Y31.5000 Z5.0000
G00 Z0.5000
G01 Z-7.5000 F600
G01 Y50.5000 F1200
G01 X125.5000
G01 Y31.5000
G01 X106.5000
G01 Z-15.0000 F600
G01 Y50.5000 F1200
G01 X125.5000
G01 Y31.5000
G01 X106.5000
G01 Z-20.0000 F600
G01 Y50.5000 F1200
G01 X125.5000
G01 Y31.5000
G01 X106.5000
G00 Z5.0000


(No. 7: Ausschnitt 1)
G00 X81.5000 Y31.5000 Z5.0000
G00 Z0.5000
G01 Z-7.5000 F600
G01 Y50.5000 F1200
G01 X100.5000
G01 Y31.5000
G01 X81.5000
G01 Z-15.0000 F600
G01 Y50.5000 F1200
G01 X100.5000
G01 Y31.5000
G01 X81.5000
G01 Z-20.0000 F600
G01 Y50.5000 F1200
G01 X100.5000
G01 Y31.5000
G01 X81.5000
G00 Z5.0000


(No. 8: Ausschnitt 1)
G00 X56.5000 Y31.5000 Z5.0000
G00 Z0.5000
G01 Z-7.5000 F600
G01 Y50.5000 F1200
G01 X75.5000
G01 Y31.5000
G01 X56.5000
G01 Z-15.0000 F600
G01 Y50.5000 F1200
G01 X75.5000
G01 Y31.5000
G01 X56.5000
G01 Z-20.0000 F600
G01 Y50.5000 F1200
G01 X75.5000
G01 Y31.5000
G01 X56.5000
G00 Z5.0000


(No. 9: Ausschnitt 1)
G00 X31.5000 Y31.5000 Z5.0000
G00 Z0.5000
G01 Z-7.5000 F600
G01 Y50.5000 F1200
G01 X50.5000
G01 Y31.5000
G01 X31.5000
G01 Z-15.0000 F600
G01 Y50.5000 F1200
G01 X50.5000
G01 Y31.5000
G01 X31.5000
G01 Z-20.0000 F600
G01 Y50.5000 F1200
G01 X50.5000
G01 Y31.5000
G01 X31.5000
G00 Z5.0000


(No. 10: Ausschnitt 1)
G00 X6.5000 Y31.5000 Z5.0000
G00 Z0.5000
G01 Z-7.5000 F600
G01 Y50.5000 F1200
G01 X25.5000
G01 Y31.5000
G01 X6.5000
G01 Z-15.0000 F600
G01 Y50.5000 F1200
G01 X25.5000
G01 Y31.5000
G01 X6.5000
G01 Z-20.0000 F600
G01 Y50.5000 F1200
G01 X25.5000
G01 Y31.5000
G01 X6.5000
G00 Z5.0000


(No. 11: Ausschnitt 1)
G00 X6.5000 Y56.5000 Z5.0000
G00 Z0.5000
G01 Z-7.5000 F600
G01 Y75.5000 F1200
G01 X25.5000
G01 Y56.5000
G01 X6.5000
G01 Z-15.0000 F600
G01 Y75.5000 F1200
G01 X25.5000
G01 Y56.5000
G01 X6.5000
G01 Z-20.0000 F600
G01 Y75.5000 F1200
G01 X25.5000
G01 Y56.5000
G01 X6.5000
G00 Z5.0000


(No. 12: Ausschnitt 1)
G00 X31.5000 Y56.5000 Z5.0000
G00 Z0.5000
G01 Z-7.5000 F600
G01 Y75.5000 F1200
G01 X50.5000
G01 Y56.5000
G01 X31.5000
G01 Z-15.0000 F600
G01 Y75.5000 F1200
G01 X50.5000
G01 Y56.5000
G01 X31.5000
G01 Z-20.0000 F600
G01 Y75.5000 F1200
G01 X50.5000
G01 Y56.5000
G01 X31.5000
G00 Z5.0000


(No. 13: Ausschnitt 1)
G00 X56.5000 Y56.5000 Z5.0000
G00 Z0.5000
G01 Z-7.5000 F600
G01 Y75.5000 F1200
G01 X75.5000
G01 Y56.5000
G01 X56.5000
G01 Z-15.0000 F600
G01 Y75.5000 F1200
G01 X75.5000
G01 Y56.5000
G01 X56.5000
G01 Z-20.0000 F600
G01 Y75.5000 F1200
G01 X75.5000
G01 Y56.5000
G01 X56.5000
G00 Z5.0000


(No. 14: Ausschnitt 1)
G00 X81.5000 Y56.5000 Z5.0000
G00 Z0.5000
G01 Z-7.5000 F600
G01 Y75.5000 F1200
G01 X100.5000
G01 Y56.5000
G01 X81.5000
G01 Z-15.0000 F600
G01 Y75.5000 F1200
G01 X100.5000
G01 Y56.5000
G01 X81.5000
G01 Z-20.0000 F600
G01 Y75.5000 F1200
G01 X100.5000
G01 Y56.5000
G01 X81.5000
G00 Z5.0000


(No. 15: Ausschnitt 1)
G00 X106.5000 Y56.5000 Z5.0000
G00 Z0.5000
G01 Z-7.5000 F600
G01 Y75.5000 F1200
G01 X125.5000
G01 Y56.5000
G01 X106.5000
G01 Z-15.0000 F600
G01 Y75.5000 F1200
G01 X125.5000
G01 Y56.5000
G01 X106.5000
G01 Z-20.0000 F600
G01 Y75.5000 F1200
G01 X125.5000
G01 Y56.5000
G01 X106.5000
G00 Z5.0000


(No. 16: Ausschnitt 1)
G00 X106.5000 Y81.5000 Z5.0000
G00 Z0.5000
G01 Z-7.5000 F600
G01 Y100.5000 F1200
G01 X125.5000
G01 Y81.5000
G01 X106.5000
G01 Z-15.0000 F600
G01 Y100.5000 F1200
G01 X125.5000
G01 Y81.5000
G01 X106.5000
G01 Z-20.0000 F600
G01 Y100.5000 F1200
G01 X125.5000
G01 Y81.5000
G01 X106.5000
G00 Z5.0000


(No. 17: Ausschnitt 1)
G00 X81.5000 Y81.5000 Z5.0000
G00 Z0.5000
G01 Z-7.5000 F600
G01 Y100.5000 F1200
G01 X100.5000
G01 Y81.5000
G01 X81.5000
G01 Z-15.0000 F600
G01 Y100.5000 F1200
G01 X100.5000
G01 Y81.5000
G01 X81.5000
G01 Z-20.0000 F600
G01 Y100.5000 F1200
G01 X100.5000
G01 Y81.5000
G01 X81.5000
G00 Z5.0000


(No. 18: Ausschnitt 1)
G00 X56.5000 Y81.5000 Z5.0000
G00 Z0.5000
G01 Z-7.5000 F600
G01 Y100.5000 F1200
G01 X75.5000
G01 Y81.5000
G01 X56.5000
G01 Z-15.0000 F600
G01 Y100.5000 F1200
G01 X75.5000
G01 Y81.5000
G01 X56.5000
G01 Z-20.0000 F600
G01 Y100.5000 F1200
G01 X75.5000
G01 Y81.5000
G01 X56.5000
G00 Z5.0000


(No. 19: Ausschnitt 1)
G00 X31.5000 Y81.5000 Z5.0000
G00 Z0.5000
G01 Z-7.5000 F600
G01 Y100.5000 F1200
G01 X50.5000
G01 Y81.5000
G01 X31.5000
G01 Z-15.0000 F600
G01 Y100.5000 F1200
G01 X50.5000
G01 Y81.5000
G01 X31.5000
G01 Z-20.0000 F600
G01 Y100.5000 F1200
G01 X50.5000
G01 Y81.5000
G01 X31.5000
G00 Z5.0000


(No. 20: Ausschnitt 1)
G00 X6.5000 Y81.5000 Z5.0000
G00 Z0.5000
G01 Z-7.5000 F600
G01 Y100.5000 F1200
G01 X25.5000
G01 Y81.5000
G01 X6.5000
G01 Z-15.0000 F600
G01 Y100.5000 F1200
G01 X25.5000
G01 Y81.5000
G01 X6.5000
G01 Z-20.0000 F600
G01 Y100.5000 F1200
G01 X25.5000
G01 Y81.5000
G01 X6.5000
G00 Z5.0000


(No. 21: Ausschnitt 1)
G00 X6.5000 Y106.5000 Z5.0000
G00 Z0.5000
G01 Z-7.5000 F600
G01 Y125.5000 F1200
G01 X25.5000
G01 Y106.5000
G01 X6.5000
G01 Z-15.0000 F600
G01 Y125.5000 F1200
G01 X25.5000
G01 Y106.5000
G01 X6.5000
G01 Z-20.0000 F600
G01 Y125.5000 F1200
G01 X25.5000
G01 Y106.5000
G01 X6.5000
G00 Z5.0000


(No. 22: Ausschnitt 1)
G00 X31.5000 Y106.5000 Z5.0000
G00 Z0.5000
G01 Z-7.5000 F600
G01 Y125.5000 F1200
G01 X50.5000
G01 Y106.5000
G01 X31.5000
G01 Z-15.0000 F600
G01 Y125.5000 F1200
G01 X50.5000
G01 Y106.5000
G01 X31.5000
G01 Z-20.0000 F600
G01 Y125.5000 F1200
G01 X50.5000
G01 Y106.5000
G01 X31.5000
G00 Z5.0000


(No. 23: Ausschnitt 1)
G00 X56.5000 Y106.5000 Z5.0000
G00 Z0.5000
G01 Z-7.5000 F600
G01 Y125.5000 F1200
G01 X75.5000
G01 Y106.5000
G01 X56.5000
G01 Z-15.0000 F600
G01 Y125.5000 F1200
G01 X75.5000
G01 Y106.5000
G01 X56.5000
G01 Z-20.0000 F600
G01 Y125.5000 F1200
G01 X75.5000
G01 Y106.5000
G01 X56.5000
G00 Z5.0000


(No. 24: Ausschnitt 1)
G00 X81.5000 Y106.5000 Z5.0000
G00 Z0.5000
G01 Z-7.5000 F600
G01 Y125.5000 F1200
G01 X100.5000
G01 Y106.5000
G01 X81.5000
G01 Z-15.0000 F600
G01 Y125.5000 F1200
G01 X100.5000
G01 Y106.5000
G01 X81.5000
G01 Z-20.0000 F600
G01 Y125.5000 F1200
G01 X100.5000
G01 Y106.5000
G01 X81.5000
G00 Z5.0000


(No. 25: Ausschnitt 1)
G00 X106.5000 Y106.5000 Z5.0000
G00 Z0.5000
G01 Z-7.5000 F600
G01 Y125.5000 F1200
G01 X125.5000
G01 Y106.5000
G01 X106.5000
G01 Z-15.0000 F600
G01 Y125.5000 F1200
G01 X125.5000
G01 Y106.5000
G01 X106.5000
G01 Z-20.0000 F600
G01 Y125.5000 F1200
G01 X125.5000
G01 Y106.5000
G01 X106.5000
G00 Z5.0000


(No. 26: Ausschnitt 1)
G00 X106.5000 Y131.5000 Z5.0000
G00 Z0.5000
G01 Z-7.5000 F600
G01 Y150.5000 F1200
G01 X125.5000
G01 Y131.5000
G01 X106.5000
G01 Z-15.0000 F600
G01 Y150.5000 F1200
G01 X125.5000
G01 Y131.5000
G01 X106.5000
G01 Z-20.0000 F600
G01 Y150.5000 F1200
G01 X125.5000
G01 Y131.5000
G01 X106.5000
G00 Z5.0000


(No. 27: Ausschnitt 1)
G00 X81.5000 Y131.5000 Z5.0000
G00 Z0.5000
G01 Z-7.5000 F600
G01 Y150.5000 F1200
G01 X100.5000
G01 Y131.5000
G01 X81.5000
G01 Z-15.0000 F600
G01 Y150.5000 F1200
G01 X100.5000
G01 Y131.5000
G01 X81.5000
G01 Z-20.0000 F600
G01 Y150.5000 F1200
G01 X100.5000
G01 Y131.5000
G01 X81.5000
G00 Z5.0000


(No. 28: Ausschnitt 1)
G00 X56.5000 Y131.5000 Z5.0000
G00 Z0.5000
G01 Z-7.5000 F600
G01 Y150.5000 F1200
G01 X75.5000
G01 Y131.5000
G01 X56.5000
G01 Z-15.0000 F600
G01 Y150.5000 F1200
G01 X75.5000
G01 Y131.5000
G01 X56.5000
G01 Z-20.0000 F600
G01 Y150.5000 F1200
G01 X75.5000
G01 Y131.5000
G01 X56.5000
G00 Z5.0000


(No. 29: Ausschnitt 1)
G00 X31.5000 Y131.5000 Z5.0000
G00 Z0.5000
G01 Z-7.5000 F600
G01 Y150.5000 F1200
G01 X50.5000
G01 Y131.5000
G01 X31.5000
G01 Z-15.0000 F600
G01 Y150.5000 F1200
G01 X50.5000
G01 Y131.5000
G01 X31.5000
G01 Z-20.0000 F600
G01 Y150.5000 F1200
G01 X50.5000
G01 Y131.5000
G01 X31.5000
G00 Z5.0000


(No. 30: Ausschnitt 1)
G00 X6.5000 Y131.5000 Z5.0000
G00 Z0.5000
G01 Z-7.5000 F600
G01 Y150.5000 F1200
G01 X25.5000
G01 Y131.5000
G01 X6.5000
G01 Z-15.0000 F600
G01 Y150.5000 F1200
G01 X25.5000
G01 Y131.5000
G01 X6.5000
G01 Z-20.0000 F600
G01 Y150.5000 F1200
G01 X25.5000
G01 Y131.5000
G01 X6.5000
G00 Z5.0000


(No. 31: Ausschnitt 1)
G00 X6.5000 Y156.5000 Z5.0000
G00 Z0.5000
G01 Z-7.5000 F600
G01 Y175.5000 F1200
G01 X25.5000
G01 Y156.5000
G01 X6.5000
G01 Z-15.0000 F600
G01 Y175.5000 F1200
G01 X25.5000
G01 Y156.5000
G01 X6.5000
G01 Z-20.0000 F600
G01 Y175.5000 F1200
G01 X25.5000
G01 Y156.5000
G01 X6.5000
G00 Z5.0000


(No. 32: Ausschnitt 1)
G00 X31.5000 Y156.5000 Z5.0000
G00 Z0.5000
G01 Z-7.5000 F600
G01 Y175.5000 F1200
G01 X50.5000
G01 Y156.5000
G01 X31.5000
G01 Z-15.0000 F600
G01 Y175.5000 F1200
G01 X50.5000
G01 Y156.5000
G01 X31.5000
G01 Z-20.0000 F600
G01 Y175.5000 F1200
G01 X50.5000
G01 Y156.5000
G01 X31.5000
G00 Z5.0000


(No. 33: Ausschnitt 1)
G00 X56.5000 Y156.5000 Z5.0000
G00 Z0.5000
G01 Z-7.5000 F600
G01 Y175.5000 F1200
G01 X75.5000
G01 Y156.5000
G01 X56.5000
G01 Z-15.0000 F600
G01 Y175.5000 F1200
G01 X75.5000
G01 Y156.5000
G01 X56.5000
G01 Z-20.0000 F600
G01 Y175.5000 F1200
G01 X75.5000
G01 Y156.5000
G01 X56.5000
G00 Z5.0000


(No. 34: Ausschnitt 1)
G00 X81.5000 Y156.5000 Z5.0000
G00 Z0.5000
G01 Z-7.5000 F600
G01 Y175.5000 F1200
G01 X100.5000
G01 Y156.5000
G01 X81.5000
G01 Z-15.0000 F600
G01 Y175.5000 F1200
G01 X100.5000
G01 Y156.5000
G01 X81.5000
G01 Z-20.0000 F600
G01 Y175.5000 F1200
G01 X100.5000
G01 Y156.5000
G01 X81.5000
G00 Z5.0000


(No. 35: Ausschnitt 1)
G00 X106.5000 Y156.5000 Z5.0000
G00 Z0.5000
G01 Z-7.5000 F600
G01 Y175.5000 F1200
G01 X125.5000
G01 Y156.5000
G01 X106.5000
G01 Z-15.0000 F600
G01 Y175.5000 F1200
G01 X125.5000
G01 Y156.5000
G01 X106.5000
G01 Z-20.0000 F600
G01 Y175.5000 F1200
G01 X125.5000
G01 Y156.5000
G01 X106.5000
G00 Z5.0000


(No. 36: Ausschnitt 1)
G00 X106.5000 Y181.5000 Z5.0000
G00 Z0.5000
G01 Z-7.5000 F600
G01 Y200.5000 F1200
G01 X125.5000
G01 Y181.5000
G01 X106.5000
G01 Z-15.0000 F600
G01 Y200.5000 F1200
G01 X125.5000
G01 Y181.5000
G01 X106.5000
G01 Z-20.0000 F600
G01 Y200.5000 F1200
G01 X125.5000
G01 Y181.5000
G01 X106.5000
G00 Z5.0000


(No. 37: Ausschnitt 1)
G00 X81.5000 Y181.5000 Z5.0000
G00 Z0.5000
G01 Z-7.5000 F600
G01 Y200.5000 F1200
G01 X100.5000
G01 Y181.5000
G01 X81.5000
G01 Z-15.0000 F600
G01 Y200.5000 F1200
G01 X100.5000
G01 Y181.5000
G01 X81.5000
G01 Z-20.0000 F600
G01 Y200.5000 F1200
G01 X100.5000
G01 Y181.5000
G01 X81.5000
G00 Z5.0000


(No. 38: Ausschnitt 1)
G00 X56.5000 Y181.5000 Z5.0000
G00 Z0.5000
G01 Z-7.5000 F600
G01 Y200.5000 F1200
G01 X75.5000
G01 Y181.5000
G01 X56.5000
G01 Z-15.0000 F600
G01 Y200.5000 F1200
G01 X75.5000
G01 Y181.5000
G01 X56.5000
G01 Z-20.0000 F600
G01 Y200.5000 F1200
G01 X75.5000
G01 Y181.5000
G01 X56.5000
G00 Z5.0000


(No. 39: Ausschnitt 1)
G00 X31.5000 Y181.5000 Z5.0000
G00 Z0.5000
G01 Z-7.5000 F600
G01 Y200.5000 F1200
G01 X50.5000
G01 Y181.5000
G01 X31.5000
G01 Z-15.0000 F600
G01 Y200.5000 F1200
G01 X50.5000
G01 Y181.5000
G01 X31.5000
G01 Z-20.0000 F600
G01 Y200.5000 F1200
G01 X50.5000
G01 Y181.5000
G01 X31.5000
G00 Z5.0000


(No. 40: Ausschnitt 1)
G00 X6.5000 Y181.5000 Z5.0000
G00 Z0.5000
G01 Z-7.5000 F600
G01 Y200.5000 F1200
G01 X25.5000
G01 Y181.5000
G01 X6.5000
G01 Z-15.0000 F600
G01 Y200.5000 F1200
G01 X25.5000
G01 Y181.5000
G01 X6.5000
G01 Z-20.0000 F600
G01 Y200.5000 F1200
G01 X25.5000
G01 Y181.5000
G01 X6.5000
G00 Z5.0000
G00 X0.0000 Y0.0000

M05
M30
